X: 43
T:Mist covered mountains of Home (Chi mi na mor-bheanna)
R:
O:Scotland
M:3/4
L:1/4
K:Am
A3|A3|e>de|edB| G3|G2A|B>AB|A>GE |c3|d3|
e>^fg|B>AG|A>Be|dcB|A3|A3||
e3|e3| deg|edB| G2G|d2B|e2e|d>cB|A3| c3|
d>eg|B>AG|A>Be|dcB|A3A3||
